Catalina-light/actions/16/window-close-symbolic.svg

<?xml version="1.0" encoding="UTF-8" standalone="no"?>
<svg
   xmlns:dc="http://purl.org/dc/elements/1.1/"
   xmlns:cc="http://creativecommons.org/ns#"
   xmlns:rdf="http://www.w3.org/1999/02/22-rdf-syntax-ns#"
   xmlns:svg="http://www.w3.org/2000/svg"
   xmlns="http://www.w3.org/2000/svg"
   xmlns:sodipodi="http://sodipodi.sourceforge.net/DTD/sodipodi-0.dtd"
   xmlns:inkscape="http://www.inkscape.org/namespaces/inkscape"
   viewBox="0 0 16 16"
   id="svg3429"
   version="1.1"
   inkscape:version="0.91 r13725"
   sodipodi:docname="window-close-symbolic.svg">
  <metadata
     id="metadata3437">
    <rdf:RDF>
      <cc:Work
         rdf:about="">
        <dc:format>image/svg+xml</dc:format>
        <dc:type
           rdf:resource="http://purl.org/dc/dcmitype/StillImage" />
      </cc:Work>
    </rdf:RDF>
  </metadata>
  <sodipodi:namedview
     pagecolor="#ffffff"
     bordercolor="#666666"
     borderopacity="1"
     objecttolerance="10"
     gridtolerance="10"
     guidetolerance="10"
     inkscape:pageopacity="0"
     inkscape:pageshadow="2"
     inkscape:window-width="640"
     inkscape:window-height="480"
     id="namedview3435"
     showgrid="false"
     inkscape:zoom="39.8125"
     inkscape:cx="3.5290424"
     inkscape:cy="8"
     inkscape:current-layer="svg3429" />
  <defs
     id="defs3051">
    <style
       type="text/css"
       id="current-color-scheme">
      .ColorScheme-Text {
        color:#bebebe;
      }
      </style>
  </defs>
  <path
     style="color:#bebebe;fill:currentColor;fill-opacity:1;stroke:none"
     class="ColorScheme-Text"
     d="M 8,2 A 5.9999998,5.9999998 0 0 0 2,8 5.9999998,5.9999998 0 0 0 8,14 5.9999998,5.9999998 0 0 0 14,8 5.9999998,5.9999998 0 0 0 8,2 Z M 5.9571572,5 C 6.6535724,5.6577902 7.3194081,6.3476782 8,7.0216734 8.680586,6.3476437 9.346434,5.6578522 10.042843,5 L 11,5.9571572 C 10.342183,6.6535996 9.652335,7.3193945 8.9783266,8 9.652355,8.680586 10.342148,9.346434 11,10.042843 L 10.042843,11 C 9.346399,10.342182 8.6806063,9.652335 8,8.978327 7.319415,9.652355 6.6535662,10.342148 5.9571572,11 L 5,10.042843 C 5.6578179,9.346399 6.3476646,8.680606 7.0216734,8 6.3476441,7.3194149 5.6578518,6.653566 5,5.9571572 L 5.9571572,5 Z"
     id="path3433"
     inkscape:connector-curvature="0" />
</svg>

<svg version="1.1" viewBox="0 0 16 16" xmlns="http://www.w3.org/2000/svg">
<defs>
<style id="current-color-scheme" type="text/css">.ColorScheme-Text {
        color:#363636;
      }</style>
</defs>
<path class="ColorScheme-Text" d="m8 2a6 6 0 0 0-6 6 6 6 0 0 0 6 6 6 6 0 0 0 6-6 6 6 0 0 0-6-6zm-2.0428 3c0.69642 0.65779 1.3623 1.3477 2.0428 2.0217 0.68059-0.67403 1.3464-1.3638 2.0428-2.0217l0.95716 0.95716c-0.65782 0.69644-1.3477 1.3622-2.0217 2.0428 0.67403 0.68059 1.3638 1.3464 2.0217 2.0428l-0.95716 0.95716c-0.69644-0.65782-1.3622-1.3477-2.0428-2.0217-0.68058 0.67403-1.3464 1.3638-2.0428 2.0217l-0.95716-0.95716c0.65782-0.69644 1.3477-1.3622 2.0217-2.0428-0.67403-0.68059-1.3638-1.3464-2.0217-2.0428l0.95716-0.95716z" color="#363636" fill="#363636"/>
</svg>
